icons/geoevent-server-16.svg

<?xml version="1.0" encoding="UTF-8"?><svg id="icons" xmlns="http://www.w3.org/2000/svg" viewBox="0 0 16 16"><path d="M3,3h1v1h-1v-1Zm2,1h1v-1h-1v1Zm2,0h1v-1h-1v1ZM15,1V7.95996c-.29999-.22998-.64001-.41998-1-.56995v-1.39001H2v3h6.02002c-.23999,.31-.44,.64001-.60004,1H1V1H15Zm-1,1H2v3H14V2ZM3,7v1h1v-1h-1Zm2,0v1h1v-1h-1Zm2,0v1h1v-1h-1Zm9,5c0,2.20996-1.70001,4-3.94,4s-4.06-1.79004-4.06-4c0-2.20142,1.82139-4,4.06-4,2.29285,0,3.94,1.85306,3.94,4Zm-1,0c0-1.67334-1.37845-3-3-3-1.62118,0-3,1.32628-3,3,0,1.64996,1.34998,3,3,3s3-1.35004,3-3Zm-3,0h1v1h-2v-3h1v2Zm4,0c0,2.20996-1.70001,4-3.94,4s-4.06-1.79004-4.06-4c0-2.20142,1.82139-4,4.06-4,2.29285,0,3.94,1.85306,3.94,4Zm-1,0c0-1.67334-1.37845-3-3-3-1.62118,0-3,1.32628-3,3,0,1.64996,1.34998,3,3,3s3-1.35004,3-3Zm-3,0h1v1h-2v-3h1v2Zm0,0v-2h-1v3h2v-1h-1Z"/><path fill="none" d="M0 0h16v16H0z"/></svg>

<svg xmlns="http://www.w3.org/2000/svg" viewBox="0 0 16 16"><path d="M3 3h1v1H3V3zm2 1h1V3H5v1zm2 0h1V3H7v1zm8-3v6.96c-.3-.23-.64-.42-1-.57V6H2v3h6.02c-.24.31-.44.64-.6 1H1V1h14zm-1 1H2v3h12V2zM3 7v1h1V7H3zm2 0v1h1V7H5zm2 0v1h1V7H7zm9 5c0 2.21-1.7 4-3.94 4S8 14.21 8 12c0-2.201 1.821-4 4.06-4C14.353 8 16 9.853 16 12zm-1 0c0-1.673-1.378-3-3-3-1.621 0-3 1.326-3 3 0 1.65 1.35 3 3 3s3-1.35 3-3zm-3 0h1v1h-2v-3h1v2zm4 0c0 2.21-1.7 4-3.94 4S8 14.21 8 12c0-2.201 1.821-4 4.06-4C14.353 8 16 9.853 16 12zm-1 0c0-1.673-1.378-3-3-3-1.621 0-3 1.326-3 3 0 1.65 1.35 3 3 3s3-1.35 3-3zm-3 0h1v1h-2v-3h1v2zm0 0v-2h-1v3h2v-1h-1z"/><path fill="none" d="M0 0h16v16H0z"/></svg>
